X:331
%%etbk:tnset id:100,pos:2,rep:3x,ant:
%%etbk:wsite http://www.thesession.org/tunes/display/92
%%etbk:skill ?
%%etbk:pldat 2013-10-29T15:47,2013-10-27T14:44,2013-10-17T19:21,2013-10-13T15:59,2013-10-08T16:32
T: Irish Washerwoman, The
Z: Piano Box Version by Martin Fleischmann
H: Created 2013-02-19 /  Last Modified 2013-02-19
M: 6/8
L: 1/8
R: jig
K: Gmaj
|: "G"{d}!2!B!1!G!2!G !1!D!2!G!1!G | !2!B!1!G!2!B !4!dcB | "D"!3!c!1!A!2!A !1!D!2!A!1!A | !3!cAc !5!edc |
"G"!2!B!1!G!2!G !1!D!2!G!1!G | !2!B!1!G!2!B !4!dcB | "D"!3!cBc !1!A!4!dc | "G"!2!B!1!GG G3:|
!3!ga |: "G"!5!b!3!gg !1!d!3!gg | !5!bgb bag | "D"!4!a!2!ff !1!d!2!ff | !4!afa agf |
"C"!1!e!3!gg !1!d!3!gg | !1!c!3!gg !1!B!3!gg | "D"!3!cBc !1!A!4!dc | "G"!2!B!1!GG G3:|
